X:451
T: THOMS SASS AM HALLENDEN SEE
N: F0849
O: Europa, Mitteleuropa, Deutschland
R: erzaehlendes Volks - Lied, Ballade
M: 6/8
L: 1/16
K: Eb
B2 | G4G2F3GF2 | E6z4
B2 | c3Bc2d3ed2 | e6z4
g2 | f3ed2e2d2c2 | d6B4
g2 | f6e4G2 | F6E4
F2 | _G3FE2D2D2D2 | E6z4

@@@ Tune index: 5882
